www/assets/icons/drag_pan.svg

<svg xmlns="http://www.w3.org/2000/svg" width="24" height="24" viewBox="0 0 24 24" fill='currentColor'><mask id="a" width="24" height="24" x="0" y="0" maskUnits="userSpaceOnUse" style="mask-type:alpha"><path d="M0 0h24v24H0z"/></mask><g mask="url(#a)"><path d="m12 22-4.25-4.25 1.425-1.425L11 18.15V13H5.875L7.7 14.8l-1.45 1.45L2 12l4.225-4.225L7.65 9.2 5.85 11H11V5.85L9.175 7.675 7.75 6.25 12 2l4.25 4.25-1.425 1.425L13 5.85V11h5.125L16.3 9.2l1.45-1.45L22 12l-4.25 4.25-1.425-1.425L18.15 13H13v5.125l1.8-1.825 1.45 1.45z"/></g></svg>

<svg width="24" height="24" viewBox="0 0 24 24" xmlns="http://www.w3.org/2000/svg" fill='currentColor'><mask id="mask0_32484_489" style="mask-type:alpha" maskUnits="userSpaceOnUse" x="0" y="0" width="24" height="24"><rect width="24" height="24"/></mask><g mask="url(#mask0_32484_489)"><path d="M12 22L7.75 17.75L9.175 16.325L11 18.15V13H5.875L7.7 14.8L6.25 16.25L2 12L6.225 7.775L7.65 9.2L5.85 11H11V5.85L9.175 7.675L7.75 6.25L12 2L16.25 6.25L14.825 7.675L13 5.85V11H18.125L16.3 9.2L17.75 7.75L22 12L17.75 16.25L16.325 14.825L18.15 13H13V18.125L14.8 16.3L16.25 17.75L12 22Z"/></g></svg>
